X:1
T:Polska efter Ludvig Olsson
R:Polska
O:Malexander, \~nstergtland
B:http://www.smus.se/earkiv/fmk/browselarge.phplang=sw&katalogid=Ma9&bildnr=00066
S:Efter Ludvig Olsson
S:Knd genom Hkensemblen
M:3/4
K:Gm
L:1/16
d2g^f g2B2 A2G2 | A2d^c d2G2 F2D2 | (GA)BG (AB)cA B2AG | G2^FG A8 |
d2g^f g2B2 A2G2 | A2d^c d2G2 F2D2 | (GA)BG (AB)cA B2AG | (^FG)AF G8 ::
(de)dc B2g2 B2g2 | (AB)cB A2f2 A2f2 | (GA)BA G2d2 G2B2 | A2G2 ^F2=EF D4 |
d2g2 B2g2 A2g2 | g4 ^f2=ef d4 | (ce)dc (Bd)cB (Ac)BA | 
(GB)AG (^FG)AF D4 | (GA)BG (AB)cA B2AG | (^FG)AF G8 :|
